static/assets/img/icons/theme/shopping/box-2.svg

<svg height="24" viewBox="0 0 24 24" width="24" xmlns="http://www.w3.org/2000/svg"><g fill="none" fill-rule="evenodd"><path d="m0 0h24v24h-24z" opacity="0"/><g fill="#000"><path d="m4 9.67471899 6.880262 3.97232111c.0740866.0427739.1517713.0736706.2308491.0932809v7.7041234l-6.62040983-3.9179714c-.30414988-.1799965-.49070127-.5071696-.49070127-.8605898zm16-.10560192v7.09676613c0 .3534202-.1865514.6805933-.4907013.8605898l-6.6204098 3.9179714v-7.7716169c.0161302-.0080579.0321178-.0166517.0479412-.0257874z"/><path d="m4.21611835 7.74669402c.08404004-.10612525.19011353-.19581828.31378245-.26168704l7-3.72835232c.2938581-.15651522.6463403-.15651522.9401984 0l7 3.72835232c.0953315.05077564.1802074.1157083.2525947.19141191l-7.6747526 4.43102051c-.0504652.029136-.0969925.0624733-.1393952.0993149-.0424028-.0368416-.0889301-.0701789-.1393952-.0993149z" opacity=".3"/></g></g></svg>

<svg width="24px" height="24px" viewBox="0 0 24 24" version="1.1" xmlns="http://www.w3.org/2000/svg" xmlns:xlink="http://www.w3.org/1999/xlink">
    <title>Icon For Box#2</title>
    <g stroke="none" stroke-width="1" fill="none" fill-rule="evenodd">
        <rect opacity="0" x="0" y="0" width="24" height="24"></rect>
        <path d="M4,9.67471899 L10.880262,13.6470401 C10.9543486,13.689814 11.0320333,13.7207107 11.1111111,13.740321 L11.1111111,21.4444444 L4.49070127,17.526473 C4.18655139,17.3464765 4,17.0193034 4,16.6658832 L4,9.67471899 Z M20,9.56911707 L20,16.6658832 C20,17.0193034 19.8134486,17.3464765 19.5092987,17.526473 L12.8888889,21.4444444 L12.8888889,13.6728275 C12.9050191,13.6647696 12.9210067,13.6561758 12.9368301,13.6470401 L20,9.56911707 Z" fill="#000000"></path>
        <path d="M4.21611835,7.74669402 C4.30015839,7.64056877 4.40623188,7.55087574 4.5299008,7.48500698 L11.5299008,3.75665466 C11.8237589,3.60013944 12.1762411,3.60013944 12.4700992,3.75665466 L19.4700992,7.48500698 C19.5654307,7.53578262 19.6503066,7.60071528 19.7226939,7.67641889 L12.0479413,12.1074394 C11.9974761,12.1365754 11.9509488,12.1699127 11.9085461,12.2067543 C11.8661433,12.1699127 11.819616,12.1365754 11.7691509,12.1074394 L4.21611835,7.74669402 Z" fill="#000000" opacity="0.3"></path>
    </g>
</svg>
